flutter/assets/clock.svg

<svg width="14" height="14" version="1.1" viewBox="0 0 3.7042 3.7042" xml:space="preserve" xmlns="http://www.w3.org/2000/svg"><g transform="translate(-112.44 -126.5)"><g transform="matrix(.26458 0 0 .26458 112.44 126.5)" fill="none"><path d="m7 0c-3.8597 0-7 3.1403-7 7 0 3.86 3.1403 7 7 7 3.86 0 7-3.14 7-7 0-3.8597-3.14-7-7-7zm2.5345 9.5345c-0.10527 0.10527-0.24285 0.15777-0.38069 0.15777-0.13785 0-0.27543-0.0525-0.3807-0.15777l-2.1538-2.1538c-0.10096-0.10096-0.15777-0.238-0.15777-0.38069v-3.7692c0-0.29723 0.24123-0.53846 0.53846-0.53846s0.53846 0.24123 0.53846 0.53846v3.546l1.9961 1.9963c0.21027 0.21027 0.21027 0.55112 0 0.76139z" fill="#87c0e0"/></g></g></svg>

<svg width="14" height="14" viewBox="0 0 14 14" fill="none" xmlns="http://www.w3.org/2000/svg">
<path d="M7 0C3.14031 0 0 3.14031 0 7C0 10.86 3.14031 14 7 14C10.86 14 14 10.86 14 7C14 3.14031 10.86 0 7 0ZM9.53454 9.53454C9.42927 9.63981 9.29169 9.69231 9.15385 9.69231C9.016 9.69231 8.87842 9.63981 8.77315 9.53454L6.61931 7.38069C6.51835 7.27973 6.46154 7.14269 6.46154 7V3.23077C6.46154 2.93354 6.70277 2.69231 7 2.69231C7.29723 2.69231 7.53846 2.93354 7.53846 3.23077V6.77681L9.53454 8.77315C9.74481 8.98342 9.74481 9.32427 9.53454 9.53454Z" fill="#87C0E0"/>
</svg>
